public/payments/crypto/avalanche.svg

<svg width="18" height="18" viewBox="0 0 18 18" fill="none" xmlns="http://www.w3.org/2000/svg">
<g clip-path="url(#clip0_256_152)">
<path d="M14.5509 3.08777H3.43713V13.1888H14.5509V3.08777Z" fill="white"/>
<path fill-rule="evenodd" clip-rule="evenodd" d="M17.994 9C17.994 13.964 13.9673 17.988 8.99999 17.988C4.03274 17.988 0.00598145 13.964 0.00598145 9C0.00598145 4.03605 4.03274 0.0119705 8.99999 0.0119705C13.9673 0.0119705 17.994 4.03605 17.994 9ZM6.45135 12.5768H4.70586C4.33908 12.5768 4.15791 12.5768 4.04744 12.5062C3.92813 12.4289 3.85521 12.3008 3.84638 12.1595C3.83974 12.0292 3.93034 11.8702 4.11151 11.5523L8.42133 3.96066C8.60472 3.63829 8.69751 3.4771 8.81462 3.41749C8.94056 3.35346 9.09081 3.35346 9.21675 3.41749C9.33385 3.4771 9.42665 3.63829 9.61003 3.96066L10.496 5.50627L10.5006 5.51415C10.6986 5.86 10.7991 6.03538 10.8429 6.21945C10.8915 6.42038 10.8915 6.63234 10.8429 6.83328C10.7987 7.01875 10.6993 7.19539 10.4982 7.54647L8.2344 11.5456L8.22854 11.5559C8.02917 11.9046 7.92813 12.0813 7.78809 12.2146C7.63563 12.3604 7.45224 12.4663 7.25118 12.526C7.06779 12.5768 6.86232 12.5768 6.45135 12.5768ZM10.8593 12.5768H13.3604C13.7293 12.5768 13.915 12.5768 14.0255 12.504C14.1448 12.4267 14.2199 12.2964 14.2266 12.1551C14.2329 12.0291 14.1443 11.8763 13.9707 11.5768C13.9647 11.5666 13.9587 11.5562 13.9526 11.5457L12.6998 9.40392L12.6855 9.37981C12.5095 9.08231 12.4206 8.93207 12.3065 8.874C12.1806 8.80996 12.0324 8.80996 11.9066 8.874C11.7917 8.93361 11.6989 9.09039 11.5155 9.40613L10.2671 11.5479L10.2629 11.5553C10.0801 11.8705 9.98878 12.028 9.99537 12.1573C10.0042 12.2986 10.0771 12.4289 10.1964 12.5062C10.3047 12.5768 10.4903 12.5768 10.8593 12.5768Z" fill="#E84142"/>
</g>
<defs>
<clipPath id="clip0_256_152">
<rect width="18" height="18" fill="white"/>
</clipPath>
</defs>
</svg>

<svg xmlns="http://www.w3.org/2000/svg" width="18" height="18" fill="none"><g clip-path="url(#a)"><path fill="#fff" d="M14.55 3.09H3.44v10.1h11.11V3.09Z"/><path fill="#E84142" fill-rule="evenodd" d="M18 9A9 9 0 1 1 0 9 9 9 0 0 1 18 9ZM6.44 12.58H4.71c-.37 0-.55 0-.66-.07a.44.44 0 0 1-.2-.35c-.01-.13.08-.29.26-.6l4.31-7.6c.18-.32.28-.48.4-.54a.44.44 0 0 1 .4 0c.11.06.2.22.39.54l.89 1.55c.2.35.3.53.34.7.05.21.05.42 0 .62a2.9 2.9 0 0 1-.34.72l-2.27 4c-.2.35-.3.53-.44.66-.15.15-.34.26-.54.32-.18.05-.39.05-.8.05Zm4.4 0h2.51c.37 0 .55 0 .67-.08.11-.07.19-.2.2-.34 0-.13-.09-.28-.26-.58l-.02-.03L12.7 9.4l-.01-.02c-.18-.3-.27-.45-.38-.5a.44.44 0 0 0-.4 0c-.12.05-.21.21-.4.53l-1.24 2.14c-.19.32-.28.48-.27.6 0 .15.08.28.2.36.1.07.29.07.66.07Z" clip-rule="evenodd"/></g><defs><clipPath id="a"><path fill="#fff" d="M0 0h18v18H0z"/></clipPath></defs></svg>
